modules/themify-icons/icons/layout-menu-v.svg

<?xml version="1.0" encoding="utf-8"?>
<!-- Generated by IcoMoon.io -->
<!DOCTYPE svg PUBLIC "-//W3C//DTD SVG 1.1//EN" "http://www.w3.org/Graphics/SVG/1.1/DTD/svg11.dtd">
<svg version="1.1" xmlns="http://www.w3.org/2000/svg" xmlns:xlink="http://www.w3.org/1999/xlink" width="17" height="17" viewBox="0 0 17 17">
<g>
</g>
	<path d="M3 1v3h11v-3h-11zM13 3h-9v-1h9v1zM3 8h11v-3h-11v3zM4 6h9v1h-9v-1zM3 11.997h11v-3h-11v3zM4 9.997h9v1h-9v-1zM3 15.997h11v-3h-11v3zM4 13.997h9v1h-9v-1z" fill="#000000" />
</svg>

<svg xmlns="http://www.w3.org/2000/svg" width="17" height="17"><path d="M3 1v3h11V1H3zm10 2H4V2h9v1zM3 8h11V5H3v3zm1-2h9v1H4V6zm-1 5.997h11v-3H3v3zm1-2h9v1H4v-1zm-1 6h11v-3H3v3zm1-2h9v1H4v-1z"/></svg>
